X:236
T:Dieu mercy, j'ay bien labouré,  (Chanson 9)
C:Manuscript de Bayeux (fin XVe)
R:Chanson
S:from bay9.MID
M:4/4
L:1/8
Q:1/4=92
%beats in anacrusis = 2
K:F 
V:1
G | A2 B2 c2 c2 | G2 A2 G2zc | c2 c2 A3/2B/2 cd | 
ed2c d3/2B/2 B2 | A2zd2<d2d | c3B A2 G2 | F3z c2 cc | 
A3/2B/2 cd ed2c | BA/2G/2 A2 G2zc | c3c A3/2B/2 cd | ed2c BA/2G/2 A2 | 
G8 | z6 zG | c2 d2 e2 d2 | cB/2A/2 B2 A2zA | 
A2 A2 d3c | BA/2G/2 AA G4 | z6 zG | c2 d2 e2 d2 | 
cB/2A/2 B2 A2zA | A2 A2 d3c | BA/2G/2 AA G4- | G4 |]
V:2 clef=perc stafflines=2
K:none
z | \
G2 GG G2 GG | G2 GG G2 GG | G2 GG G2 GG | 
G2 GG G2 GG | G2 GG G2 GG | G2 GG G2 GG | G2 GG G2 GG | 
G2 GG G2 GG | G2 GG G2 GG | G2 GG G2 GG | G2 GG G2 GG | 
G2 GG G2 GG | G2 GG G2 GG | G2 GG G2 GG | G2 GG G2 GG | 
G2 GG G2 GG | G2 GG G2 GG | G2 GG G2 GG | G2 GG G2 GG | 
G2 GG G2 GG | G2 GG G2 GG | G2 GG G2 GG | G4 |]





